X:555
T: Beim Pfnderspiel (254), S. 545
N: T0443
O: Luxemburg
S: Singendes Volk, Esch-Alzette, 1937 posth.]
N: Straen, fff Witry, 31.1.1933
R: Scherz-, Spiel-, Spottlied]
M: 2/4
L: 1/16
K: G
D2 | E2F2G2G2 | G2G2G2G2 | G4z2
D2 | E2F2G2G2 | G4z2
A2 | BBB2B2B2 | c2B2A2B2 | G2G2G2c2 | G2G2G2
D2 | DDD2EEF2 | G4z2
A2 | BBB2B2B2 | c2B2A2B2 | G2G2G2c2 | G2G2G2
D2 | DDD2EEF2 | G4z2

@@@ Tune index: 8609
